packages/ffe-icons/icons/filled/md/keyboard_external_input.svg

<svg xmlns="http://www.w3.org/2000/svg" height="24" viewBox="0 -960 960 960" width="24"><path d="M744.694-220.001H593.846q-12.769 0-21.384-8.616-8.616-8.615-8.616-21.384t8.616-21.384Q581.077-280 593.846-280h150.848l-52.54-52.924q-8.308-8.308-8.308-20.769 0-12.461 8.923-21.384 8.308-8.308 21.077-8.308 12.769 0 21.076 8.308l99.384 99.769q10.846 10.846 10.846 25.307 0 14.462-10.846 25.308l-99.384 99.769q-8.307 8.307-20.769 8.423-12.461.115-21.384-8.808-8.307-8.307-8.307-20.884t8.307-20.884l51.925-52.924ZM240-564.616q14.692 0 25.038-10.346T275.384-600q0-14.692-10.346-25.038T240-635.384q-14.692 0-25.038 10.346T204.616-600q0 14.692 10.346 25.038T240-564.616Zm120 0q14.692 0 25.038-10.346T395.384-600q0-14.692-10.346-25.038T360-635.384q-14.692 0-25.038 10.346T324.616-600q0 14.692 10.346 25.038T360-564.616Zm120 0q14.692 0 25.038-10.346T515.384-600q0-14.692-10.346-25.038T480-635.384q-14.692 0-25.038 10.346T444.616-600q0 14.692 10.346 25.038T480-564.616Zm120 0q14.692 0 25.038-10.346T635.384-600q0-14.692-10.346-25.038T600-635.384q-14.692 0-25.038 10.346T564.616-600q0 14.692 10.346 25.038T600-564.616Zm120 0q14.692 0 25.038-10.346T755.384-600q0-14.692-10.346-25.038T720-635.384q-14.692 0-25.038 10.346T684.616-600q0 14.692 10.346 25.038T720-564.616Zm-480 120q14.692 0 25.038-10.346T275.384-480q0-14.692-10.346-25.038T240-515.384q-14.692 0-25.038 10.346T204.616-480q0 14.692 10.346 25.038T240-444.616Zm120 0q14.692 0 25.038-10.346T395.384-480q0-14.692-10.346-25.038T360-515.384q-14.692 0-25.038 10.346T324.616-480q0 14.692 10.346 25.038T360-444.616Zm120 0q14.692 0 25.038-10.346T515.384-480q0-14.692-10.346-25.038T480-515.384q-14.692 0-25.038 10.346T444.616-480q0 14.692 10.346 25.038T480-444.616Zm120-70.768q-14.692 0-25.038 10.346T564.616-480q0 11.692 6.461 20.961 6.462 9.269 17.769 12.654 10.615-6.615 21.538-12.231 10.923-5.615 23.154-10.615 1.846-8.846.462-16.615-1.385-7.769-6-14.615-4.616-6.846-11.769-10.885-7.154-4.038-16.231-4.038ZM172.309-220.001q-30.308 0-51.308-21t-21-51.308v-375.382q0-30.308 21-51.308t51.308-21h615.382q30.308 0 51.308 21t21 51.308v179.921q0 18.077-15.77 26.5-15.769 8.423-32.23-.038-13.692-6.846-27.807-11.192-14.116-4.346-28.808-6.962V-481.923q-.769-14.308-10.923-23.884-10.154-9.577-24.461-9.577-13.923 0-23.692 9.192t-10.923 22.73q-.385.616-.385 1.231 0 .615-.384 1.231-45.616 4.461-85.039 27.654-39.424 23.192-67.193 57.962H360q-14.692 0-25.038 10.153-10.346 10.154-10.346 25.231 0 14.692 10.346 25.038T360-324.616h132.846q-6.231 17.692-8.654 35.423-2.423 17.73-2.807 36.038-.385 13.461-9.423 23.307-9.039 9.847-21.885 9.847H172.309Z"/></svg>

<svg xmlns="http://www.w3.org/2000/svg" height="24" viewBox="0 -960 960 960" width="24"><path d="M744.69-220H593.85q-12.77 0-21.39-8.62-8.61-8.61-8.61-21.38t8.61-21.38q8.62-8.62 21.39-8.62h150.84l-52.54-52.92q-8.3-8.31-8.3-20.77 0-12.46 8.92-21.39 8.31-8.3 21.08-8.3 12.76 0 21.07 8.3l99.39 99.77q10.84 10.85 10.84 25.31 0 14.46-10.84 25.31l-99.39 99.77q-8.31 8.3-20.77 8.42-12.46.11-21.38-8.81-8.31-8.31-8.31-20.88 0-12.58 8.31-20.89L744.69-220ZM240-564.62q14.69 0 25.04-10.34 10.34-10.35 10.34-25.04t-10.34-25.04q-10.35-10.34-25.04-10.34t-25.04 10.34q-10.34 10.35-10.34 25.04t10.34 25.04q10.35 10.34 25.04 10.34Zm120 0q14.69 0 25.04-10.34 10.34-10.35 10.34-25.04t-10.34-25.04q-10.35-10.34-25.04-10.34t-25.04 10.34q-10.34 10.35-10.34 25.04t10.34 25.04q10.35 10.34 25.04 10.34Zm120 0q14.69 0 25.04-10.34 10.34-10.35 10.34-25.04t-10.34-25.04q-10.35-10.34-25.04-10.34t-25.04 10.34q-10.34 10.35-10.34 25.04t10.34 25.04q10.35 10.34 25.04 10.34Zm120 0q14.69 0 25.04-10.34 10.34-10.35 10.34-25.04t-10.34-25.04q-10.35-10.34-25.04-10.34t-25.04 10.34q-10.34 10.35-10.34 25.04t10.34 25.04q10.35 10.34 25.04 10.34Zm120 0q14.69 0 25.04-10.34 10.34-10.35 10.34-25.04t-10.34-25.04q-10.35-10.34-25.04-10.34t-25.04 10.34q-10.34 10.35-10.34 25.04t10.34 25.04q10.35 10.34 25.04 10.34Zm-480 120q14.69 0 25.04-10.34 10.34-10.35 10.34-25.04t-10.34-25.04q-10.35-10.34-25.04-10.34t-25.04 10.34q-10.34 10.35-10.34 25.04t10.34 25.04q10.35 10.34 25.04 10.34Zm120 0q14.69 0 25.04-10.34 10.34-10.35 10.34-25.04t-10.34-25.04q-10.35-10.34-25.04-10.34t-25.04 10.34q-10.34 10.35-10.34 25.04t10.34 25.04q10.35 10.34 25.04 10.34Zm120 0q14.69 0 25.04-10.34 10.34-10.35 10.34-25.04t-10.34-25.04q-10.35-10.34-25.04-10.34t-25.04 10.34q-10.34 10.35-10.34 25.04t10.34 25.04q10.35 10.34 25.04 10.34Zm120-70.76q-14.69 0-25.04 10.34-10.34 10.35-10.34 25.04 0 11.69 6.46 20.96 6.46 9.27 17.77 12.65 10.61-6.61 21.53-12.23 10.93-5.61 23.16-10.61 1.84-8.85.46-16.62-1.39-7.77-6-14.61-4.62-6.85-11.77-10.89-7.15-4.03-16.23-4.03ZM172.31-220Q142-220 121-241q-21-21-21-51.31v-375.38Q100-698 121-719q21-21 51.31-21h615.38Q818-740 839-719q21 21 21 51.31v179.92q0 18.08-15.77 26.5-15.77 8.42-32.23-.04-13.69-6.84-27.81-11.19-14.11-4.35-28.81-6.96v-2.46q-.77-14.31-10.92-23.89-10.15-9.57-24.46-9.57-13.92 0-23.69 9.19-9.77 9.19-10.92 22.73-.39.61-.39 1.23 0 .61-.38 1.23-45.62 4.46-85.04 27.65-39.43 23.2-67.2 57.97H360q-14.69 0-25.04 10.15-10.34 10.15-10.34 25.23 0 14.69 10.34 25.04 10.35 10.34 25.04 10.34h132.85q-6.23 17.7-8.66 35.43-2.42 17.73-2.81 36.03-.38 13.47-9.42 23.31-9.04 9.85-21.88 9.85H172.31Z"/></svg>
